modules/feather/icons/archive.svg

<?xml version="1.0" encoding="UTF-8"?>
<svg width="24px" height="24px" viewBox="0 0 24 24" version="1.1" xmlns="http://www.w3.org/2000/svg" xmlns:xlink="http://www.w3.org/1999/xlink">
    <g id="archive" fill-rule="evenodd">
        <path d="M20,9 L4,9 L4,20 L20,20 L20,9 Z M22,9 L22,21 C22,21.5522847 21.5522847,22 21,22 L3,22 C2.44771525,22 2,21.5522847 2,21 L2,9 L1,9 C0.44771525,9 0,8.55228475 0,8 L0,3 C0,2.44771525 0.44771525,2 1,2 L23,2 C23.5522847,2 24,2.44771525 24,3 L24,8 C24,8.55228475 23.5522847,9 23,9 L22,9 Z M2,4 L2,7 L22,7 L22,4 L2,4 Z M10,13 C9.44771525,13 9,12.5522847 9,12 C9,11.4477153 9.44771525,11 10,11 L14,11 C14.5522847,11 15,11.4477153 15,12 C15,12.5522847 14.5522847,13 14,13 L10,13 Z" id="Combined-Shape" fill="#000000" fill-rule="nonzero"></path>
    </g>
</svg>

<svg width="24" height="24" viewBox="0 0 24 24" xmlns="http://www.w3.org/2000/svg"><path d="M20 9H4v11h16V9zm2 0v12a1 1 0 0 1-1 1H3a1 1 0 0 1-1-1V9H1a1 1 0 0 1-1-1V3a1 1 0 0 1 1-1h22a1 1 0 0 1 1 1v5a1 1 0 0 1-1 1h-1zM2 4v3h20V4H2zm8 9a1 1 0 0 1 0-2h4a1 1 0 0 1 0 2h-4z" fill-rule="nonzero"/></svg>
